svgs/regular/sterling-sign.svg

<svg xmlns="http://www.w3.org/2000/svg" viewBox="0 0 320 512"><!-- Font Awesome Pro 6.0.0-alpha2 by @fontawesome - https://fontawesome.com License - https://fontawesome.com/license (Commercial License) --><path d="M320 456C320 469.25 309.25 480 296 480H24C14.906 480 6.594 474.859 2.531 466.734S-0.656 448.875 4.813 441.594C32.656 404.453 48 358.422 48 312V280H24C10.75 280 0 269.25 0 256S10.75 232 24 232H48V159.25C48 89.078 105.094 32 175.25 32C188.969 32 202.531 34.203 215.5 38.531L295.594 65.234C308.156 69.422 314.969 83.016 310.781 95.594C306.563 108.141 293.063 114.969 280.406 110.766L200.313 84.063C192.219 81.359 183.813 80 175.25 80C131.563 80 96 115.547 96 159.25V232H232C245.25 232 256 242.75 256 256S245.25 280 232 280H96V312C96 353.625 85.906 394.984 67.094 432H296C309.25 432 320 442.75 320 456Z"/></svg>

<svg xmlns="http://www.w3.org/2000/svg" viewBox="0 0 320 512"><!--! Font Awesome Pro 6.0.0-alpha3 by @fontawesome - https://fontawesome.com License - https://fontawesome.com/license (Commercial License) --><path d="M320 456c0 13.25-10.75 24-24 24h-272c-9.094 0-17.41-5.141-21.47-13.27s-3.188-17.86 2.281-25.14C32.66 404.5 48 358.4 48 312v-32H24C10.75 280 0 269.3 0 256s10.75-24 24-24H48V159.3C48 89.08 105.1 32 175.3 32c13.72 0 27.28 2.203 40.25 6.531l80.09 26.7c12.56 4.188 19.38 17.78 15.19 30.36c-4.219 12.55-17.72 19.38-30.38 15.17l-80.09-26.7C192.2 81.36 183.8 80 175.3 80C131.6 80 96 115.5 96 159.3V232h136C245.3 232 256 242.8 256 256s-10.75 24-24 24H96v32c0 41.63-10.09 82.98-28.91 120H296C309.3 432 320 442.8 320 456z"/></svg>
